X: 59
T: Christmas Song
N: Copyright, 1916, by The Cable Company.
O: Old German
%R: air, waltz
B: "The Everyday Song Book", 1927
F: http://www.library.pitt.edu/happybirthday/pdf/The_Everyday_Song_Book.pdf
Z: 2017 John Chambers <jc:trillian.mit.edu>
M: 3/8
L: 1/8
K: G
% - - - - - - - - - - - - - - -
d | d2 B | B2 G | Ac A | G2 d | d2 B |
w: 1.~We greet Thee bless-ed Christ-*mas Child, We greet Thee,
w: 2.~In peace-ful slum-ber dost* Thou lie,     In peace-ful
%
B2 G | Ac A | G2 B | A2 c | c2 A |
w: bless-ed Christ-*mas Child; In songs of praise our
w: slum-ber dost* Thou lie;    And watch we'll keep while
%
G2 B | d2 B | A2 c | c2 A | GB A | G2 |]
w: voi-ces raise    In songs of praise our voi-*ces raise.
w: Thou dost sleep, And watch we'll keep while Thou* dost sleep.
% - - - - - - - - - - - - - - -
